src/icons/mouse.svg

<?xml version="1.0" encoding="UTF-8" standalone="no"?>
<svg width="35px" height="55px" viewBox="0 0 35 55" version="1.1" xmlns="http://www.w3.org/2000/svg" xmlns:xlink="http://www.w3.org/1999/xlink" xmlns:sketch="http://www.bohemiancoding.com/sketch/ns">
    <!-- Generator: Sketch 3.4.4 (17249) - http://www.bohemiancoding.com/sketch -->
    <title>mouse</title>
    <desc>Created with Sketch.</desc>
    <defs></defs>
    <g id="Page-1" stroke="none" stroke-width="1" fill="none" fill-rule="evenodd" sketch:type="MSPage">
        <g id="mouse" sketch:type="MSLayerGroup" fill="#4A4A4A">
            <path d="M17.5,52 C9.49187113,52 3,45.5081289 3,37.5 L3,17.5 C3,9.49187113 9.49187113,3 17.5,3 C25.5081289,3 32,9.49187113 32,17.5 L32,37.5 C32,45.5081289 25.5081289,52 17.5,52 L17.5,52 Z M17.5,55 C27.1649831,55 35,47.1649831 35,37.5 L35,17.5 C35,7.83501688 27.1649831,0 17.5,0 C7.83501688,0 0,7.83501688 0,17.5 L0,37.5 C0,47.1649831 7.83501688,55 17.5,55 Z M17.5,12 C18.3284271,12 19,12.6715729 19,13.5 L19,17.5 C19,18.3284271 18.3284271,19 17.5,19 C16.6715729,19 16,18.3284271 16,17.5 L16,13.5 C16,12.6715729 16.6715729,12 17.5,12 Z M17.5,11 C16.1192881,11 15,12.1192881 15,13.5 L15,17.5 C15,18.8807119 16.1192881,20 17.5,20 C18.8807119,20 20,18.8807119 20,17.5 L20,13.5 C20,12.1192881 18.8807119,11 17.5,11 L17.5,11 Z" sketch:type="MSShapeGroup"></path>
            <path d="M17.5,28.381983 L23.0523932,25.6057864 L23.499207,25.3823795 L23.7230134,25.8289933 L24.1710134,26.7229933 L24.3952206,27.1704067 L23.9476068,27.3942136 L17.9476068,30.3942136 L17.500793,30.6176205 L17.5,30.6160379 L17.499207,30.6176205 L17.0523932,30.3942136 L11.0523932,27.3942136 L10.6047794,27.1704067 L10.8289866,26.7229933 L11.2769866,25.8289933 L11.500793,25.3823795 L11.9476068,25.6057864 L17.5,28.381983 Z" id="Shape" sketch:type="MSShapeGroup"></path>
            <path d="M17.5,34.381983 L23.0523932,31.6057864 L23.499207,31.3823795 L23.7230134,31.8289933 L24.1710134,32.7229933 L24.3952206,33.1704067 L23.9476068,33.3942136 L17.9476068,36.3942136 L17.500793,36.6176205 L17.5,36.6160379 L17.499207,36.6176205 L17.0523932,36.3942136 L11.0523932,33.3942136 L10.6047794,33.1704067 L10.8289866,32.7229933 L11.2769866,31.8289933 L11.500793,31.3823795 L11.9476068,31.6057864 L17.5,34.381983 Z" id="Shape" sketch:type="MSShapeGroup"></path>
            <path d="M17.5,40.381983 L23.0523932,37.6057864 L23.499207,37.3823795 L23.7230134,37.8289933 L24.1710134,38.7229933 L24.3952206,39.1704067 L23.9476068,39.3942136 L17.9476068,42.3942136 L17.500793,42.6176205 L17.5,42.6160379 L17.499207,42.6176205 L17.0523932,42.3942136 L11.0523932,39.3942136 L10.6047794,39.1704067 L10.8289866,38.7229933 L11.2769866,37.8289933 L11.500793,37.3823795 L11.9476068,37.6057864 L17.5,40.381983 Z" id="Shape" sketch:type="MSShapeGroup"></path>
        </g>
    </g>
</svg>

<svg class="icon icon-mouse" xmlns="http://www.w3.org/2000/svg" width="12.347mm" height="19.403mm" viewBox="0 0 35 55">
  <title>mouse</title>
  <g>
    <path d="M17.5,52A14.5,14.5,0,0,1,3,37.5v-20a14.5,14.5,0,0,1,29,0v20A14.5,14.5,0,0,1,17.5,52h0Zm0,3A17.5,17.5,0,0,0,35,37.5v-20a17.5,17.5,0,0,0-35,0v20A17.5,17.5,0,0,0,17.5,55Zm0-43A1.5,1.5,0,0,1,19,13.5v4a1.5,1.5,0,1,1-3,0v-4A1.5,1.5,0,0,1,17.5,12Zm0-1A2.5,2.5,0,0,0,15,13.5v4a2.5,2.5,0,1,0,5,0v-4A2.5,2.5,0,0,0,17.5,11h0Z" fill="#4a4a4a"/>
    <path class="icon-mouse__arrow" d="M17.5,28.382l5.552-2.776,0.447-.223,0.224,0.447,0.448,0.894L24.4,27.17l-0.448.224-6,3-0.447.223v0l-0.447-.223-6-3L10.6,27.17l0.224-.447,0.448-.894,0.224-.447,0.447,0.223Z" fill="#4a4a4a"/>
    <path class="icon-mouse__arrow" d="M17.5,34.382l5.552-2.776,0.447-.223,0.224,0.447,0.448,0.894L24.4,33.17l-0.448.224-6,3-0.447.223v0l-0.447-.223-6-3L10.6,33.17l0.224-.447,0.448-.894,0.224-.447,0.447,0.223Z" fill="#4a4a4a"/>
    <path class="icon-mouse__arrow" d="M17.5,40.382l5.552-2.776,0.447-.223,0.224,0.447,0.448,0.894L24.4,39.17l-0.448.224-6,3-0.447.223v0l-0.447-.223-6-3L10.6,39.17l0.224-.447,0.448-.894,0.224-.447,0.447,0.223Z" fill="#4a4a4a"/>
  </g>
</svg>
